(/Applications/pcbgcode.repo/pcb-gcode.ulp)
(Copyright 2005 - 2012 by John Johnson)
(See readme.txt for licensing terms.)
(This file generated from the board:)
(.../eurorack/CGS-Noise/eagle/cgs_noise.brd)
(Current profile is .../pcbgcode.repo/profiles/mach.pp  )
(This file generated 1/9/16 1:13 PM)
(Settings from pcb-machine.h)
(spindle on time = 0.0000)
(spindle speed = 20000.0000)
(tool change at 0.0000  0.0000  3.0000  )
(feed rate xy = F0     )
(feed rate z  = F20    )
(Z Axis Settings)
(  High     Up        Down     Drill)
(1.0000  	0.0500  	-0.0040 	-0.0730 )
(Settings from pcb-defaults.h)
(isolate min = 0.0010)
(isolate max = 0.0150)
(isolate step = 0.0015)
(Generated bottom outlines, bottom drill, )
(Unit of measure: inch)
( Tool|       Size       |  Min Sub |  Max Sub |   Count )
( T01 | 0.800mm 0.0315in | 0.0000in | 0.0000in |       0 )
( T02 | 0.813mm 0.0320in | 0.0000in | 0.0000in |       0 )
( T03 | 1.016mm 0.0400in | 0.0000in | 0.0000in |       0 )
( T04 | 1.300mm 0.0512in | 0.0000in | 0.0000in |       0 )
(Inch Mode)
G20
(Absolute Coordinates)
G90
S20000
G00 Z1.0000  
G00 X0.0000  Y0.0000  
M03
G04 P0.000000
M05
G00 Z3.0000  
M06 T01  ; 0.0315  
G01 Z0.0000  F20    
M06 
G00 Z0.0500  
M03
G04 P0.000000
G82 X-0.4000 Y0.9000  Z-0.0730 F20    R0.0500  P0.010000
G82 X-0.4000 Y1.1250  
G82 X-1.8516 Y1.6000  
G82 X-2.0484 Y1.6000  
G82 X-1.9234 Y2.6750  
G82 X-1.7266 Y2.6750  
M05
G00 Z3.0000  
G00 X0.0000  Y0.0000  
M06 T02  ; 0.0320  
G01 Z0.0000  F20    
M06 
G00 Z0.0500  
M03
G04 P0.000000
G82 X-0.1750 Y1.4000  Z-0.0730 F20    R0.0500  P0.010000
G82 X-0.1750 Y1.5000  
G82 X-0.1750 Y1.7750  
G82 X-0.1750 Y2.0000  
G82 X-0.3250 Y2.1250  
G82 X-0.5750 Y2.0000  
G82 X-0.5250 Y1.8750  
G82 X-0.5750 Y1.7750  
G82 X-0.7250 Y1.8750  
G82 X-0.9250 Y1.9500  
G82 X-1.0750 Y1.9500  
G82 X-1.0750 Y1.8500  
G82 X-1.0750 Y1.7500  
G82 X-1.0750 Y1.6500  
G82 X-1.0750 Y1.5500  
G82 X-0.9250 Y1.5500  
G82 X-0.9750 Y1.4250  
G82 X-0.8000 Y1.4250  
G82 X-0.6500 Y1.4000  
G82 X-0.6500 Y1.5000  
G82 X-0.5000 Y1.6000  
G82 X-0.8000 Y1.6250  
G82 X-0.6500 Y1.2750  
G82 X-0.7750 Y1.2000  
G82 X-0.5000 Y1.2000  
G82 X-0.6500 Y0.8750  
G82 X-0.8250 Y0.7500  
G82 X-0.9500 Y0.8750  
G82 X-1.0500 Y0.8750  
G82 X-1.1250 Y1.0500  
G82 X-1.1750 Y1.2000  
G82 X-1.1750 Y1.3000  
G82 X-1.3750 Y1.3000  
G82 X-1.3750 Y1.4250  
G82 X-1.3750 Y1.5500  
G82 X-1.3750 Y1.6500  
G82 X-1.3750 Y1.7500  
G82 X-1.3750 Y1.8500  
G82 X-1.3750 Y1.9500  
G82 X-1.3750 Y2.0500  
G82 X-1.3750 Y2.1500  
G82 X-1.5250 Y2.1500  
G82 X-1.5750 Y2.2750  
G82 X-1.5750 Y2.3750  
G82 X-1.7250 Y2.5000  
G82 X-1.8250 Y2.5000  
G82 X-1.9000 Y2.3750  
G82 X-1.9000 Y2.1750  
G82 X-1.7250 Y2.0750  
G82 X-1.6250 Y1.8750  
G82 X-1.5250 Y1.7500  
G82 X-1.5000 Y1.6500  
G82 X-1.5000 Y1.4500  
G82 X-1.6250 Y1.4750  
G82 X-1.6000 Y1.2750  
G82 X-1.4500 Y1.1500  
G82 X-1.3250 Y1.0500  
G82 X-1.4500 Y0.7500  
G82 X-1.6000 Y0.8750  
G82 X-1.7250 Y0.7000  
G82 X-1.9000 Y0.8500  
G82 X-2.0000 Y0.8500  
G82 X-1.9750 Y1.1000  
G82 X-1.7250 Y1.1000  
G82 X-1.9750 Y1.5000  
G82 X-1.7250 Y1.6750  
G82 X-1.0750 Y2.0500  
G82 X-1.0750 Y2.1500  
G82 X-0.9500 Y2.1750  
G82 X-0.9000 Y2.2500  
G82 X-0.9250 Y2.3250  
G82 X-1.0250 Y2.4000  
G82 X-1.0750 Y2.3250  
G82 X-1.1250 Y2.4000  
G82 X-1.0000 Y2.5250  
G82 X-1.0750 Y2.6250  
G82 X-1.1750 Y2.6250  
G82 X-1.3250 Y2.5250  
G82 X-1.3250 Y2.3250  
G82 X-0.8500 Y2.1750  
G82 X-0.7250 Y2.1250  
G82 X-0.5250 Y2.3250  
G82 X-0.6000 Y2.5250  
G82 X-0.4250 Y0.7500  
M05
G00 Z3.0000  
G00 X0.0000  Y0.0000  
M06 T03  ; 0.0400  
G01 Z0.0000  F20    
M06 
G00 Z0.0500  
M03
G04 P0.000000
G82 X-2.1250 Y1.8500  Z-0.0730 F20    R0.0500  P0.010000
G82 X-2.1250 Y1.9500  
G82 X-2.1250 Y2.0500  
G82 X-2.1250 Y2.1500  
G82 X-2.1250 Y2.2500  
G82 X-2.1250 Y2.3500  
G82 X-2.1250 Y2.4500  
G82 X-2.1250 Y2.5500  
G82 X-2.2250 Y2.5500  
G82 X-2.2250 Y2.4500  
G82 X-2.2250 Y2.3500  
G82 X-2.2250 Y2.2500  
G82 X-2.2250 Y2.1500  
G82 X-2.2250 Y2.0500  
G82 X-2.2250 Y1.9500  
G82 X-2.2250 Y1.8500  
M05
G00 Z3.0000  
G00 X0.0000  Y0.0000  
M06 T04  ; 0.0512  
G01 Z0.0000  F20    
M06 
G00 Z0.0500  
M03
G04 P0.000000
G82 X-0.2200 Y0.0980  Z-0.0730 F20    R0.0500  P0.010000
G82 X-0.2531 Y0.0984  
G82 X-0.2870 Y0.0980  
G82 X-0.4580 Y0.4980  
G82 X-0.4579 Y0.5315  
G82 X-0.4580 Y0.5650  
G82 X-0.2860 Y0.6180  
G82 X-0.2531 Y0.6181  
G82 X-0.2200 Y0.6180  
G82 X-0.7450 Y0.6180  
G82 X-0.7781 Y0.6181  
G82 X-0.8110 Y0.6180  
G82 X-0.9830 Y0.5650  
G82 X-0.9829 Y0.5315  
G82 X-0.9830 Y0.4980  
G82 X-1.3950 Y0.6180  
G82 X-1.4281 Y0.6181  
G82 X-1.4610 Y0.6180  
G82 X-1.6330 Y0.5650  
G82 X-1.6329 Y0.5315  
G82 X-1.6330 Y0.4980  
G82 X-1.9200 Y0.6180  
G82 X-1.9531 Y0.6181  
G82 X-1.9860 Y0.6180  
G82 X-2.1580 Y0.5650  
G82 X-2.1579 Y0.5315  
G82 X-2.1580 Y0.4980  
G82 X-1.9870 Y0.0980  
G82 X-1.9531 Y0.0984  
G82 X-1.9200 Y0.0980  
G82 X-1.4620 Y0.0980  
G82 X-1.4281 Y0.0984  
G82 X-1.3950 Y0.0980  
G82 X-0.8120 Y0.0980  
G82 X-0.7781 Y0.0984  
G82 X-0.7450 Y0.0980  
T01 
G00 Z1.0000  
M05
M02
