(/Applications/pcbgcode.repo/pcb-gcode.ulp)
(Copyright 2005 - 2012 by John Johnson)
(See readme.txt for licensing terms.)
(This file generated from the board:)
(.../eurorack/CGS-Noise/eagle/cgs_noise.brd)
(Current profile is .../pcbgcode.repo/profiles/mach.pp  )
(This file generated 1/9/16 1:13 PM)
(Settings from pcb-machine.h)
(spindle on time = 0.0000)
(spindle speed = 15000.0000)
(milling depth = -0.0630)
(tool change at 0.0000  0.0000  3.0000  )
(feed rate xy = F10    )
(feed rate z  = F5     )
(Z Axis Settings)
(  High     Up        Down     Drill)
(1.0000  	0.0500  	-0.0040 	-0.0730 )
(Settings from pcb-defaults.h)
(isolate min = 0.0010)
(isolate max = 0.0150)
(isolate step = 0.0015)
(Generated bottom outlines, bottom drill, )
(Unit of measure: inch)
(Inch Mode)
G20
(Absolute Coordinates)
G90
S15000
G00 Z1.0000  
G00 X0.0000  Y0.0000  
M03
G04 P0.000000
G00 Z0.0500  
G00 X-0.0300 Y0.0250  
G01 Z-0.0630 F5     
G01 X0.0250  Y-0.0350 F10    
G01 X2.2750  Y-0.0350 
G01 X2.3250  Y0.0150  
G01 X2.3250  Y2.8000  
G01 X2.2850  Y2.8400  
G01 X0.0300  Y2.8400  
G01 X-0.0300 Y2.7750  
G01 X-0.0300 Y0.0250  
G00 Z0.0500  
G00 X0.0700  Y0.2000  
G01 Z-0.0630 F5     
G01 X0.0700  Y0.2100  F10    
G00 Z0.0500  
G00 X0.0700  Y0.2000  
G01 Z-0.0630 F5     
G01 X0.0900  Y0.2000  F10    
G01 X0.0900  Y0.2200  
G01 X0.0800  Y0.2200  
G00 Z0.0500  
G00 X2.1800  Y0.1100  
G01 Z-0.0630 F5     
G01 X2.1800  Y0.1000  F10    
G01 X2.2000  Y0.1000  
G01 X2.2000  Y0.1200  
G01 X2.1900  Y0.1200  
G00 Z0.0500  
G00 X2.1900  Y2.7200  
G01 Z-0.0630 F5     
G01 X2.1900  Y2.7300  F10    
G00 Z0.0500  
G00 X2.1900  Y2.7200  
G01 Z-0.0630 F5     
G01 X2.2100  Y2.7200  F10    
G01 X2.2100  Y2.7400  
G01 X2.2000  Y2.7400  
G00 Z0.0500  
G00 X0.1200  Y2.7100  
G01 Z-0.0630 F5     
G01 X0.1200  Y2.6900  F10    
G01 X0.1000  Y2.6900  
G01 X0.1000  Y2.7000  
G00 Z0.0500  
G00 X0.1100  Y2.7100  
G01 Z-0.0630 F5     
G01 X0.1200  Y2.7100  F10    
G00 Z1.0000  
M05
M02
